icon-themes/sifr_svg/cmd/sc_showdependents.svg

<svg viewBox="0 0 16 16" xmlns="http://www.w3.org/2000/svg"><path d="m4 1v1c0 .2653.0931.53058.28125.71875l.28125.28125h-3.5625v2h3.5625l-.28125.28125c-.18811.18818-.28129.45344-.28125.71875v1h1c.26529 0 .53057-.09304.71875-.28125l2-2 .28125-.28125v-.875l-.28125-.28125-2-2c-.18817-.18814-.45344-.2812198-.71875-.28125zm6 0c-.554 0-1 .446-1 1v4c0 .554.446 1 1 1h4c.554 0 1-.446 1-1v-4c0-.554-.446-1-1-1zm1 2h2v2h-2zm-7 6v1c0 .2653.0931.53058.28125.71875l.28125.28125h-3.5625v2h3.5625l-.28125.28125c-.18811.18818-.28129.45344-.28125.71875v1h1c.26529 0 .53057-.09304.71875-.28125l2-2 .28125-.28125v-.875l-.28125-.28125-2-2c-.18817-.18814-.45344-.2812198-.71875-.28125zm6 0c-.554 0-1 .446-1 1v4c0 .554.446 1 1 1h4c.554 0 1-.446 1-1v-4c0-.554-.446-1-1-1zm1 2h2v2h-2z" fill="#555753"/></svg>

<svg xmlns="http://www.w3.org/2000/svg" viewBox="0 0 16 16">
  <path
     style="fill:#555753"
     d="M 4 1 L 4 2 C 4 2.2653 4.0931 2.53058 4.28125 2.71875 L 4.5625 3 L 1 3 L 1 5 L 4.5625 5 L 4.28125 5.28125 C 4.09314 5.46943 3.99996 5.73469 4 6 L 4 7 L 5 7 C 5.26529 7 5.53057 6.90696 5.71875 6.71875 L 7.71875 4.71875 L 8 4.4375 L 8 3.5625 L 7.71875 3.28125 L 5.71875 1.28125 C 5.53058 1.09311 5.26531 1.0000302 5 1 L 4 1 z M 10 1 C 9.446 1 9 1.446 9 2 L 9 6 C 9 6.554 9.446 7 10 7 L 14 7 C 14.554 7 15 6.554 15 6 L 15 2 C 15 1.446 14.554 1 14 1 L 10 1 z M 11 3 L 13 3 L 13 5 L 11 5 L 11 3 z M 4 9 L 4 10 C 4 10.2653 4.0931 10.53058 4.28125 10.71875 L 4.5625 11 L 1 11 L 1 13 L 4.5625 13 L 4.28125 13.28125 C 4.09314 13.46943 3.99996 13.73469 4 14 L 4 15 L 5 15 C 5.26529 15 5.53057 14.90696 5.71875 14.71875 L 7.71875 12.71875 L 8 12.4375 L 8 11.5625 L 7.71875 11.28125 L 5.71875 9.28125 C 5.53058 9.09311 5.26531 9.0000302 5 9 L 4 9 z M 10 9 C 9.446 9 9 9.446 9 10 L 9 14 C 9 14.554 9.446 15 10 15 L 14 15 C 14.554 15 15 14.554 15 14 L 15 10 C 15 9.446 14.554 9 14 9 L 10 9 z M 11 11 L 13 11 L 13 13 L 11 13 L 11 11 z "
     />
</svg>
